src/assets/icons/Group.svg

<svg width="28" height="41" viewBox="0 0 28 41" fill="none" xmlns="http://www.w3.org/2000/svg">
<path d="M19.5603 16.62C19.2203 16.62 18.9303 16.34 18.9303 16V10.54C18.9303 7.68 16.6103 5.36 13.7503 5.36C10.8903 5.36 8.57033 7.69 8.57033 10.54V16C8.57033 16.34 8.29034 16.62 7.94034 16.62H4.46033C4.12033 16.62 3.84033 16.34 3.84033 16V10.54C3.84033 5.07 8.29033 0.619995 13.7603 0.619995C19.2303 0.619995 23.6803 5.07 23.6803 10.54V16C23.6803 16.34 23.4003 16.62 23.0503 16.62H19.5603Z" fill="#3629B7"/>
<path d="M13.7602 1.24C18.8802 1.24 23.0502 5.41 23.0502 10.53V15.99H19.5702V10.53C19.5702 7.33 16.9702 4.72 13.7602 4.72C10.5602 4.72 7.95021 7.32 7.95021 10.53V15.99H4.47021V10.53C4.47021 5.41 8.63021 1.24 13.7602 1.24ZM13.7602 0C7.95021 0 3.22021 4.73 3.22021 10.54V16C3.22021 16.69 3.78021 17.25 4.47021 17.25H7.95021C8.64021 17.25 9.20021 16.69 9.20021 16V10.54C9.20021 8.03 11.2402 5.98 13.7602 5.98C16.2702 5.98 18.3202 8.03 18.3202 10.54V16C18.3202 16.69 18.8802 17.25 19.5702 17.25H23.0502C23.7402 17.25 24.3002 16.69 24.3002 16V10.54C24.3002 4.72 19.5702 0 13.7602 0Z" fill="white"/>
<path d="M2.14012 39.4C1.30012 39.4 0.620117 38.72 0.620117 37.88V16.89C0.620117 16.05 1.30012 15.37 2.14012 15.37H25.3801C26.2201 15.37 26.9001 16.05 26.9001 16.89V37.87C26.9001 38.71 26.2201 39.39 25.3801 39.39H2.14012V39.4Z" fill="#3629B7"/>
<path d="M25.38 16C25.87 16 26.27 16.4 26.27 16.9V37.88C26.27 38.37 25.87 38.78 25.38 38.78H2.14C1.64 38.78 1.25 38.38 1.25 37.88V16.89C1.25 16.4 1.65 15.99 2.14 15.99H25.38V16ZM25.38 14.75H2.14C0.959999 14.75 0 15.71 0 16.89V37.87C0 39.05 0.959999 40.01 2.14 40.01H25.38C26.56 40.01 27.52 39.05 27.52 37.87V16.89C27.52 15.71 26.56 14.75 25.38 14.75Z" fill="white"/>
<path d="M17.5102 26.23C17.5102 24.16 15.8302 22.48 13.7502 22.48C11.6802 22.48 9.99023 24.16 9.99023 26.23C9.99023 27.83 10.9902 29.2 12.4102 29.74V31.5C12.4102 32.24 13.0102 32.84 13.7502 32.84C14.4902 32.84 15.0902 32.24 15.0902 31.5V29.74C16.5102 29.2 17.5102 27.83 17.5102 26.23Z" fill="#3629B7" stroke="white" stroke-width="1.2486" stroke-miterlimit="10" stroke-linecap="round" stroke-linejoin="round"/>
</svg>

<svg xmlns="http://www.w3.org/2000/svg" width="28" height="41" fill="none" viewBox="0 0 28 41">
  <path fill="#3629B7" d="M19.56 16.62c-.34 0-.63-.28-.63-.62v-5.46c0-2.86-2.32-5.18-5.18-5.18s-5.18 2.33-5.18 5.18V16c0 .34-.28.62-.63.62H4.46c-.34 0-.62-.28-.62-.62v-5.46c0-5.47 4.45-9.92 9.92-9.92s9.92 4.45 9.92 9.92V16c0 .34-.28.62-.63.62h-3.49Z"/>
  <path fill="#fff" d="M13.76 1.24c5.12 0 9.29 4.17 9.29 9.29v5.46h-3.48v-5.46c0-3.2-2.6-5.81-5.81-5.81-3.2 0-5.81 2.6-5.81 5.81v5.46H4.47v-5.46c0-5.12 4.16-9.29 9.29-9.29Zm0-1.24C7.95 0 3.22 4.73 3.22 10.54V16c0 .69.56 1.25 1.25 1.25h3.48c.69 0 1.25-.56 1.25-1.25v-5.46c0-2.51 2.04-4.56 4.56-4.56a4.57 4.57 0 0 1 4.56 4.56V16c0 .69.56 1.25 1.25 1.25h3.48c.69 0 1.25-.56 1.25-1.25v-5.46C24.3 4.72 19.57 0 13.76 0Z"/>
  <path fill="#3629B7" d="M2.14 39.4c-.84 0-1.52-.68-1.52-1.52V16.89c0-.84.68-1.52 1.52-1.52h23.24c.84 0 1.52.68 1.52 1.52v20.98c0 .84-.68 1.52-1.52 1.52H2.14v.01Z"/>
  <path fill="#fff" d="M25.38 16c.49 0 .89.4.89.9v20.98c0 .49-.4.9-.89.9H2.14c-.5 0-.89-.4-.89-.9V16.89c0-.49.4-.9.89-.9h23.24V16Zm0-1.25H2.14c-1.18 0-2.14.96-2.14 2.14v20.98c0 1.18.96 2.14 2.14 2.14h23.24c1.18 0 2.14-.96 2.14-2.14V16.89c0-1.18-.96-2.14-2.14-2.14Z"/>
  <path fill="#3629B7" stroke="#fff" stroke-linecap="round" stroke-linejoin="round" stroke-miterlimit="10" stroke-width="1.249" d="M17.51 26.23c0-2.07-1.68-3.75-3.76-3.75a3.76 3.76 0 0 0-3.76 3.75c0 1.6 1 2.97 2.42 3.51v1.76a1.34 1.34 0 0 0 2.68 0v-1.76a3.753 3.753 0 0 0 2.42-3.51Z"/>
</svg>
